Страховая/img/svg/bag.svg

<svg width="102" height="88" viewBox="0 0 102 88" fill="none" xmlns="http://www.w3.org/2000/svg">
<path d="M4.93808 38.0701C12.2954 15.0678 31.0716 0.910272 56.677 1.67469C82.2825 2.43911 100.412 25.4093 99.6468 51.0366C98.8817 76.6639 53.6262 86.6215 28.0207 85.8571C2.41521 85.0926 -3.35184 63.9881 4.93808 38.0701Z" fill="#FFF3DB"/>
<g clip-path="url(#clip0)">
<path d="M82.9265 30.2721C82.7707 29.8682 82.3829 29.6014 81.95 29.6001H72.5V28.5501C72.5 27.9702 72.0299 27.5001 71.45 27.5001H64.1V25.4001C64.1 20.7609 60.3392 17.0001 55.7 17.0001H47.3C42.6608 17.0001 38.9 20.7609 38.9 25.4001V27.5001H31.55C30.9701 27.5001 30.5 27.9702 30.5 28.5501V29.6001H21.05C20.5398 29.5907 20.0969 29.9496 20 30.4506V74.7501C20 77.6495 22.3506 80.0001 25.25 80.0001H77.75C80.6494 80.0001 83 77.6495 83 74.7501V30.2721H82.9265ZM64.1 29.6001H70.4V40.1001H64.1V29.6001ZM41 25.4001C41 21.9206 43.8206 19.1001 47.3 19.1001H55.7C59.1794 19.1001 62 21.9206 62 25.4001V29.6001H59.9V25.4001C59.9 23.0805 58.0196 21.2001 55.7 21.2001H47.3C44.9804 21.2001 43.1 23.0805 43.1 25.4001V29.6001H41V25.4001ZM57.8 25.4001V29.6001H45.2V25.4001C45.2 24.2402 46.1401 23.3001 47.3 23.3001H55.7C56.8599 23.3001 57.8 24.2402 57.8 25.4001ZM32.6 29.6001H38.9V40.1001H32.6V29.6001ZM25.25 77.9001C23.5103 77.9001 22.1 76.4898 22.1 74.7501V56.9001C23.0059 57.5872 24.1131 57.9562 25.25 57.9501H30.5V62.9691C29.8363 63.5627 29.4547 64.4095 29.45 65.3001V69.5001C29.45 70.0799 29.9201 70.5501 30.5 70.5501V74.7501C30.4938 75.8869 30.8629 76.9942 31.55 77.9001H25.25ZM38.9 74.7501C38.9 76.4898 37.4897 77.9001 35.75 77.9001C34.0103 77.9001 32.6 76.4898 32.6 74.7501V72.6501H38.9V74.7501ZM38.9 70.5501H32.6V64.2501H34.7V67.4001H36.8V64.2501H38.9V70.5501ZM38.9 62.1501H36.8V60.0501H34.7V62.1501H32.6V49.5501H38.9V62.1501ZM39.95 77.9001C40.6371 76.9942 41.0062 75.8869 41 74.7501V70.5501C41.5799 70.5501 42.05 70.0799 42.05 69.5001V65.3001C42.0453 64.4095 41.6637 63.5627 41 62.9691V57.9501H62V62.9691C61.3363 63.5627 60.9547 64.4095 60.95 65.3001V69.5001C60.95 70.0799 61.4201 70.5501 62 70.5501V74.7501C61.9938 75.8869 62.3629 76.9942 63.05 77.9001H39.95ZM70.4 74.7501C70.4 76.4898 68.9897 77.9001 67.25 77.9001C65.5103 77.9001 64.1 76.4898 64.1 74.7501V72.6501H70.4V74.7501ZM70.4 70.5501H64.1V64.2501H66.2V67.4001H68.3V64.2501H70.4V70.5501ZM70.4 62.1501H68.3V60.0501H66.2V62.1501H64.1V49.5501H70.4V62.1501ZM80.9 74.7501C80.9 76.4898 79.4897 77.9001 77.75 77.9001H71.45C72.1371 76.9942 72.5062 75.8869 72.5 74.7501V70.5501C73.0799 70.5501 73.55 70.0799 73.55 69.5001V65.3001C73.5453 64.4095 73.1637 63.5627 72.5 62.9691V57.9501H77.75C78.8869 57.9562 79.9941 57.5872 80.9 56.9001V74.7501ZM80.9 52.7001C80.9 54.4398 79.4897 55.8501 77.75 55.8501H72.5V49.5501H74.6V47.4501H59.9V49.5501H62V55.8501H41V49.5501H43.1V47.4501H28.4V49.5501H30.5V55.8501H25.25C23.5103 55.8501 22.1 54.4398 22.1 52.7001V31.7001H30.5V40.1001H28.4V42.2001H43.1V40.1001H41V31.7001H62V40.1001H59.9V42.2001H74.6V40.1001H72.5V31.7001H80.9V52.7001Z" fill="#D0935A"/>
<path d="M36.8 55.85H34.7V57.95H36.8V55.85Z" fill="#D0935A"/>
<path d="M36.8 51.6501H34.7V53.7501H36.8V51.6501Z" fill="#D0935A"/>
<path d="M68.2999 55.85H66.2V57.95H68.2999V55.85Z" fill="#D0935A"/>
<path d="M68.2999 51.6501H66.2V53.7501H68.2999V51.6501Z" fill="#D0935A"/>
</g>
<defs>
<clipPath id="clip0">
<rect width="63" height="63" fill="white" transform="translate(20 17.0001)"/>
</clipPath>
</defs>
</svg>

<svg width="102" height="88" fill="none" xmlns="http://www.w3.org/2000/svg"><path d="M4.938 38.07C12.295 15.068 31.072.91 56.677 1.675c25.605.764 43.735 23.734 42.97 49.362-.765 25.627-46.02 35.584-71.626 34.82C2.415 85.093-3.352 63.988 4.938 38.07z" fill="#FFF3DB"/><g clip-path="url(#clip0)" fill="#D0935A"><path d="M82.927 30.272a1.05 1.05 0 00-.977-.672H72.5v-1.05c0-.58-.47-1.05-1.05-1.05H64.1v-2.1a8.4 8.4 0 00-8.4-8.4h-8.4a8.4 8.4 0 00-8.4 8.4v2.1h-7.35c-.58 0-1.05.47-1.05 1.05v1.05h-9.45a1.05 1.05 0 00-1.05.85v44.3c0 2.9 2.35 5.25 5.25 5.25h52.5c2.9 0 5.25-2.35 5.25-5.25V30.272h-.073zM64.1 29.6h6.3v10.5h-6.3V29.6zM41 25.4a6.3 6.3 0 016.3-6.3h8.4a6.3 6.3 0 016.3 6.3v4.2h-2.1v-4.2a4.2 4.2 0 00-4.2-4.2h-8.4a4.2 4.2 0 00-4.2 4.2v4.2H41v-4.2zm16.8 0v4.2H45.2v-4.2c0-1.16.94-2.1 2.1-2.1h8.4c1.16 0 2.1.94 2.1 2.1zm-25.2 4.2h6.3v10.5h-6.3V29.6zm-7.35 48.3a3.15 3.15 0 01-3.15-3.15V56.9a5.167 5.167 0 003.15 1.05h5.25v5.02a3.15 3.15 0 00-1.05 2.33v4.2c0 .58.47 1.05 1.05 1.05v4.2a5.166 5.166 0 001.05 3.15h-6.3zm13.65-3.15a3.15 3.15 0 11-6.3 0v-2.1h6.3v2.1zm0-4.2h-6.3v-6.3h2.1v3.15h2.1v-3.15h2.1v6.3zm0-8.4h-2.1v-2.1h-2.1v2.1h-2.1v-12.6h6.3v12.6zm1.05 15.75A5.166 5.166 0 0041 74.75v-4.2c.58 0 1.05-.47 1.05-1.05v-4.2A3.15 3.15 0 0041 62.97v-5.02h21v5.02a3.15 3.15 0 00-1.05 2.33v4.2c0 .58.47 1.05 1.05 1.05v4.2a5.166 5.166 0 001.05 3.15h-23.1zm30.45-3.15a3.15 3.15 0 11-6.3 0v-2.1h6.3v2.1zm0-4.2h-6.3v-6.3h2.1v3.15h2.1v-3.15h2.1v6.3zm0-8.4h-2.1v-2.1h-2.1v2.1h-2.1v-12.6h6.3v12.6zm10.5 12.6a3.15 3.15 0 01-3.15 3.15h-6.3a5.166 5.166 0 001.05-3.15v-4.2c.58 0 1.05-.47 1.05-1.05v-4.2a3.15 3.15 0 00-1.05-2.33v-5.02h5.25a5.167 5.167 0 003.15-1.05v17.85zm0-22.05a3.15 3.15 0 01-3.15 3.15H72.5v-6.3h2.1v-2.1H59.9v2.1H62v6.3H41v-6.3h2.1v-2.1H28.4v2.1h2.1v6.3h-5.25a3.15 3.15 0 01-3.15-3.15v-21h8.4v8.4h-2.1v2.1h14.7v-2.1H41v-8.4h21v8.4h-2.1v2.1h14.7v-2.1h-2.1v-8.4h8.4v21z"/><path d="M36.8 55.85h-2.1v2.1h2.1v-2.1zm0-4.2h-2.1v2.1h2.1v-2.1zm31.5 4.2h-2.1v2.1h2.1v-2.1zm0-4.2h-2.1v2.1h2.1v-2.1z"/></g><defs><clipPath id="clip0"><path fill="#fff" transform="translate(20 17)" d="M0 0h63v63H0z"/></clipPath></defs></svg>
